X:1
T:THE ROAD TO BERWICK
T:THE ROAD TO BERWICK
T:re-named The Buck of the Cabrach
T:Wm MARSHALL
C:Wm MARSHALL
%%score 1 2
L:1/8
M:2/2
K:D
V:1 treble 
V:2 bass 
V:1
|: F<DAF BGAF | DAdf e2 E2 | F<DAF BGAF | Adce d2 D2 :| (f/g/a) (fd) bgag | (f/g/a) (fd) b2 (eg) | %6
 (f/g/a) (fd) bgag | fdec d2 D2 | (f/g/a) (fd) bgag | (f/g/a) (fd) b2 (eg) | fdge afbg | %11
 fdec d2 D2 |] %12
V:2
|: D,2 [A,D]2 [A,C]2 [A,D]2 | D,2 [A,D]2 A,,2 [A,C]2 | D,2 [A,D]2 [A,C]2 [A,D]2 | %3
 A,2 [A,,G,]2 [D,F,]2 [D,F,]2 :| D,2 [A,D]2 C,2 [A,C]2 | D,2 [A,D]2 A,,2 [A,C]2 | %6
 D,2 [A,D]2 C,2 [A,C]2 | A,2 [A,,G,]2 [D,F,]2 [D,F,]2 | D,2 [A,D]2 C,2 [A,C]2 | %9
 D,2 [A,D]2 A,,2 [A,C]2 | [A,D]2 [A,C]2 [A,D]2 [A,C]2 | A,2 [A,,G,]2 [D,F,]2 [D,F,]2 |] %12

